svg/color/aeon.svg

<svg height="32" viewBox="0 0 32 32" width="32" xmlns="http://www.w3.org/2000/svg"><g fill="none"><circle cx="16" cy="16" fill="#134451" r="16"/><g fill="#fff" transform="translate(5 5)"><path d="m8.99882122 11.32249c-.49705305 0-.87308448.0839357-1.1324165.2429718-.25068763.1546185-.37603144.3887551-.37603144.697992 0 .2297189.07779961.4152611.22475442.5477912.15127702.1325301.36306483.1987952.62671906.1987952.41060904 0 .75206287-.1281125 1.02436149-.3799197.27229863-.2562249.45815324-.6140562.54891945-1.073494l.04322201-.2341365z"/><path d="m14.2632613 9.15341365c-.151277-.13253012-.3630648-.19879518-.6267191-.19879518-.410609 0-.7520628.12811245-1.0243615.37991968-.2722986.2562249-.4581532.61405623-.5489194 1.07349395l-.043222.2341366.9595285-.0044177c.497053 0 .8730845-.0839357 1.1324165-.2429719.2506876-.1546185.3760314-.388755.3760314-.69799195 0-.22971888-.0734774-.41084337-.2247544-.5433735z"/><path d="m21.9654224 9.71004016c-.3284872-2.96425703-5.5108055-4.79759036-11.5705305-4.09518072-6.05972491.70240964-10.70609033 3.67550201-10.3776031 6.63975906.32848723 2.964257 5.5064833 4.7975903 11.5705305 4.0951807 6.0640471-.7024096 10.7060903-3.675502 10.3776031-6.63975904zm-6.340668 1.48433734c-.6137524.4373494-1.5084479.6538153-2.6840864.6582329l-1.1410609.0044177-.0345776.1634538c-.0129666.0485944-.0172888.0839358-.0172888.1104418-.0043222.0220883-.0043222.0441767-.0043222.0618474 0 .2518072.1166994.4373494.345776.5610442.2290766.1281124.5705305.1899598 1.0157171.1899598.4235756 0 .8298625-.0485944 1.2145383-.1369478.3803536-.0883534.7477407-.2208835 1.0978389-.3975904l-.2895874 1.5550201c-.4365423.1060241-.8557957.1899599-1.2707269.2429719-.4149313.0574297-.8168959.0883534-1.2058939.0883534-.5532417 0-1.0113949-.066265-1.378782-.2076305-.3803536-.1457831-.8039292-.4638554-1.0157171-.9188755-.43222001.402008-.88172885.697992-1.33988209.8923695s-.94223969.2959839-1.45225933.2959839c-.63104126.0044177-1.1280943-.1502008-1.48251474-.4550201-.35874263-.3048192-.53595284-.7289156-.54027505-1.2634538-.0043222-.8216867.30255403-1.4445783.91198429-1.87751.61375245-.4373494 1.50844793-.6538153 2.68408644-.6582329l1.14106088-.0044177.0345776-.16345383c.0129666-.04859438.0172888-.08393575.0172888-.11044177.0043222-.02208836.0043222-.04417671.0043222-.06184739 0-.25180723-.1166994-.4373494-.345776-.56104418-.22907662-.12811245-.57053045-.18995984-1.01571709-.18995984-.42357564 0-.82986248.04859438-1.21453831.13694779-.38035364.08835342-.74774067.22088354-1.0978389.39759037l.28958742-1.55502008c.43654224-.1060241.85579568-.18995984 1.27072692-.24297189.41493124-.05742972.81689587-.08835342 1.20589391-.08835342.55324165 0 1.01139485.06626506 1.37878195.20763053.3803536.14578313.8039292.46385542 1.0157171.9188755.43222-.40200803.8817288-.69799197 1.3398821-.89236948.4581532-.19437751.9422397-.29598394 1.4522593-.29598394.6310413-.00441767 1.1280943.15020081 1.4825148.45502008.3587426.30481928.5359528.72891567.540275 1.26345382.0043222.81726903-.2982318 1.44457833-.9119843 1.87751003z"/><path d="m11.5229862 16.7032129c-.8774066.1016064-1.74616891.1502008-2.58899799.1502008-2.00550098 0-3.88133595-.282731-5.44165029-.8349398-.70884087-.2518072-1.32259332-.5477912-1.84125737-.8835341-.21178782 1.1176706-.06915521 2.1028112.47976424 2.8361445 1.57760315 2.107229 5.99056975 1.435743 10.35599211-1.4004016-.3198428.0485944-.6396856.0927711-.9638507.1325302z"/><path d="m10.4986248 5.30562249c2.9607072-.34457831 5.8133595-.10160643 8.0306483.68473896.7088408.25180722 1.3225933.54779116 1.8412574.88353413.2117878-1.11767068.0691552-2.10281124-.4797643-2.83614458-1.5776031-2.10722891-5.9905697-1.43574297-10.35599213 1.40040161.31984283-.05301205.64400783-.09718875.96385073-.13253012z"/><path d="m7.27858546 19.2654618c-.62671906.1457832-1.21453831.2253013-1.75913556.2429719.44518664 1.1795181 1.14106091 2.0056225 2.06168959 2.3148595 2.221611.7465863 5.09587431-1.7008032 7.13163061-5.7518073-.4797642.1325302-.9768173.2518073-1.4781925.3534137-1.9882122 1.4048193-4.06286837 2.3987952-5.95599214 2.8405622z"/><path d="m14.8770138 2.7124498c.626719-.14136546 1.2145383-.22088353 1.7591355-.23413655-.4408644-1.17951807-1.1324165-2.01004016-2.0530452-2.32369478-2.2172888-.75542168-5.10451864 1.67871486-7.15324162 5.71646587.47976424-.13253012.97681728-.24738956 1.48251473-.34457832 1.98821219-1.4004016 4.06719059-2.38112449 5.96463659-2.81405622z"/></g></g></svg>

<?xml version="1.0" encoding="UTF-8"?>
<svg width="32px" height="32px" viewBox="0 0 32 32" version="1.1" xmlns="http://www.w3.org/2000/svg" xmlns:xlink="http://www.w3.org/1999/xlink">
    <!-- Generator: Sketch 50 (54983) - http://www.bohemiancoding.com/sketch -->
    <title>color/aeon</title>
    <desc>Created with Sketch.</desc>
    <defs></defs>
    <g id="color/aeon" stroke="none" stroke-width="1" fill="none" fill-rule="evenodd">
        <g id="Group" fill="#134451" fill-rule="nonzero">
            <circle id="Oval" cx="16" cy="16" r="16"></circle>
        </g>
        <g id="Aeon-(AEON)" transform="translate(5.000000, -9.000000)" fill="#FFFFFF" fill-rule="nonzero">
            <g id="Group" transform="translate(0.000000, 14.000000)">
                <path d="M8.99882122,11.32249 C8.50176817,11.32249 8.12573674,11.4064257 7.86640472,11.5654618 C7.61571709,11.7200803 7.49037328,11.9542169 7.49037328,12.2634538 C7.49037328,12.4931727 7.56817289,12.6787149 7.7151277,12.811245 C7.86640472,12.9437751 8.07819253,13.0100402 8.34184676,13.0100402 C8.7524558,13.0100402 9.09390963,12.8819277 9.36620825,12.6301205 C9.63850688,12.3738956 9.82436149,12.0160643 9.9151277,11.5566265 L9.95834971,11.32249 L8.99882122,11.32249 Z" id="Shape"></path>
                <path d="M14.2632613,9.15341365 C14.1119843,9.02088353 13.9001965,8.95461847 13.6365422,8.95461847 C13.2259332,8.95461847 12.8844794,9.08273092 12.6121807,9.33453815 C12.3398821,9.59076305 12.1540275,9.94859438 12.0632613,10.4080321 L12.0200393,10.6421687 L12.9795678,10.637751 C13.4766208,10.637751 13.8526523,10.5538153 14.1119843,10.3947791 C14.3626719,10.2401606 14.4880157,10.0060241 14.4880157,9.69678715 C14.4880157,9.46706827 14.4145383,9.28594378 14.2632613,9.15341365 Z" id="Shape"></path>
                <path d="M21.9654224,9.71004016 C21.6369352,6.74578313 16.4546169,4.9124498 10.3948919,5.61485944 C4.33516699,6.31726908 -0.311198428,9.29036145 0.0172888016,12.2546185 C0.345776031,15.2188755 5.5237721,17.0522088 11.5878193,16.3497992 C17.6518664,15.6473896 22.2939096,12.6742972 21.9654224,9.71004016 Z M15.6247544,11.1943775 C15.011002,11.6317269 14.1163065,11.8481928 12.940668,11.8526104 L11.7996071,11.8570281 L11.7650295,12.0204819 C11.7520629,12.0690763 11.7477407,12.1044177 11.7477407,12.1309237 C11.7434185,12.153012 11.7434185,12.1751004 11.7434185,12.1927711 C11.7434185,12.4445783 11.8601179,12.6301205 12.0891945,12.7538153 C12.3182711,12.8819277 12.659725,12.9437751 13.1049116,12.9437751 C13.5284872,12.9437751 13.9347741,12.8951807 14.3194499,12.8068273 C14.6998035,12.7184739 15.0671906,12.5859438 15.4172888,12.4092369 L15.1277014,13.964257 C14.6911591,14.0702811 14.2719057,14.1542169 13.8569745,14.2072289 C13.4420432,14.2646586 13.0400786,14.2955823 12.6510806,14.2955823 C12.0978389,14.2955823 11.6396857,14.2293173 11.2722986,14.0879518 C10.891945,13.9421687 10.4683694,13.6240964 10.2565815,13.1690763 C9.82436149,13.5710843 9.37485265,13.8670683 8.91669941,14.0614458 C8.45854617,14.2558233 7.97445972,14.3574297 7.46444008,14.3574297 C6.83339882,14.3618474 6.33634578,14.2072289 5.98192534,13.9024096 C5.62318271,13.5975904 5.4459725,13.173494 5.44165029,12.6389558 C5.43732809,11.8172691 5.74420432,11.1943775 6.35363458,10.7614458 C6.96738703,10.3240964 7.86208251,10.1076305 9.03772102,10.1032129 L10.1787819,10.0987952 L10.2133595,9.93534137 C10.2263261,9.88674699 10.2306483,9.85140562 10.2306483,9.8248996 C10.2349705,9.80281124 10.2349705,9.78072289 10.2349705,9.76305221 C10.2349705,9.51124498 10.1182711,9.32570281 9.8891945,9.20200803 C9.66011788,9.07389558 9.31866405,9.01204819 8.87347741,9.01204819 C8.44990177,9.01204819 8.04361493,9.06064257 7.6589391,9.14899598 C7.27858546,9.2373494 6.91119843,9.36987952 6.5611002,9.54658635 L6.85068762,7.99156627 C7.28722986,7.88554217 7.7064833,7.80160643 8.12141454,7.74859438 C8.53634578,7.69116466 8.93831041,7.66024096 9.32730845,7.66024096 C9.8805501,7.66024096 10.3387033,7.72650602 10.7060904,7.86787149 C11.086444,8.01365462 11.5100196,8.33172691 11.7218075,8.78674699 C12.1540275,8.38473896 12.6035363,8.08875502 13.0616896,7.89437751 C13.5198428,7.7 14.0039293,7.59839357 14.5139489,7.59839357 C15.1449902,7.5939759 15.6420432,7.74859438 15.9964637,8.05341365 C16.3552063,8.35823293 16.5324165,8.78232932 16.5367387,9.31686747 C16.5410609,10.1341365 16.2385069,10.7614458 15.6247544,11.1943775 Z" id="Shape"></path>
                <path d="M11.5229862,16.7032129 C10.6455796,16.8048193 9.77681729,16.8534137 8.93398821,16.8534137 C6.92848723,16.8534137 5.05265226,16.5706827 3.49233792,16.0184739 C2.78349705,15.7666667 2.1697446,15.4706827 1.65108055,15.1349398 C1.43929273,16.2526104 1.58192534,17.237751 2.13084479,17.9710843 C3.70844794,20.0783133 8.12141454,19.4068273 12.4868369,16.5706827 C12.1669941,16.6192771 11.8471513,16.6634538 11.5229862,16.7032129 Z" id="Shape"></path>
                <path d="M10.4986248,5.30562249 C13.459332,4.96104418 16.3119843,5.20401606 18.5292731,5.99036145 C19.2381139,6.24216867 19.8518664,6.53815261 20.3705305,6.87389558 C20.5823183,5.7562249 20.4396857,4.77108434 19.8907662,4.037751 C18.3131631,1.93052209 13.9001965,2.60200803 9.53477407,5.43815261 C9.8546169,5.38514056 10.1787819,5.34096386 10.4986248,5.30562249 Z" id="Shape"></path>
                <path d="M7.27858546,19.2654618 C6.6518664,19.411245 6.06404715,19.4907631 5.5194499,19.5084337 C5.96463654,20.6879518 6.66051081,21.5140562 7.58113949,21.8232932 C9.80275049,22.5698795 12.6770138,20.12249 14.7127701,16.0714859 C14.2330059,16.2040161 13.7359528,16.3232932 13.2345776,16.4248996 C11.2463654,17.8297189 9.17170923,18.8236948 7.27858546,19.2654618 Z" id="Shape"></path>
                <path d="M14.8770138,2.7124498 C15.5037328,2.57108434 16.0915521,2.49156627 16.6361493,2.47831325 C16.1952849,1.29879518 15.5037328,0.468273092 14.5831041,0.154618474 C12.3658153,-0.600803213 9.47858546,1.83333333 7.42986248,5.87108434 C7.90962672,5.73855422 8.40667976,5.62369478 8.91237721,5.52650602 C10.9005894,4.12610442 12.9795678,3.14538153 14.8770138,2.7124498 Z" id="Shape"></path>
            </g>
        </g>
    </g>
</svg>
